!!!COA:	Josquin des Prez
!!!CDT:	~1450-1521/08/27
!!!OTL@@FRE: Si j'ay perdu mon amy
!!!AGN:	Chanson
!!!SCT:	NJE 28.32
!!!SCA:	New Josquin Edition 28.32
!!!voices:	4
**kern	**kern	**kern	**kern
*staff4	*staff3	*staff2	*staff1
*Ivox	*Ivox	*Ivox	*Ivox
*I"Bassus	*I"Tenor	*I"Altus	*I"Superius
*I'B	*I'T	*I'A	*I'S
*clefF4	*clefGv2	*clefGv2	*clefG2
*k[b-]	*k[b-]	*k[b-]	*k[b-]
*M2/1	*M2/1	*M2/1	*M2/1
*met(C)	*met(C)	*met(C)	*met(C)
=1-	=1-	=1-	=1-
2.G\	0r	0r	0r
4G\	.	.	.
2F\	.	.	.
2B-\	.	.	.
=2	=2	=2	=2
2B-\	1r	0r	0r
2A\	.	.	.
1B-	2.G/	.	.
.	4G/	.	.
=3	=3	=3	=3
1BB-	2F/	0r	0r
.	2B-\	.	.
1C	2B-\	.	.
.	2A/	.	.
=4	=4	=4	=4
4BB-/	1B-	2.d\	0r
4C/	.	.	.
4D\	.	.	.
4E\	.	4d\	.
2F\	2r	2c\	.
[2D\	2A/	2f\	.
=5	=5	=5	=5
2D\]	2B-\	2f\	2.g/
2C/	2c\	2e\	.
.	.	.	4g/
2D\	2A/	[1f	2f/
2BB-/	2B-\	.	2b-\
=6	=6	=6	=6
1F	1c	1f]	2b-\
.	.	.	2a/
1BB-	[1B-	1r	[1b-
=7	=7	=7	=7
1r	1B-]	2.f\	1b-]
.	.	4e\	.
2.B-\	1r	2d\	1r
.	.	2c\	.
4A\	.	.	.
=8	=8	=8	=8
2G\	0r	4d\	0r
.	.	4e\	.
2F\	.	4f\	.
.	.	4d\	.
4G\	.	2e\	.
4A\	.	.	.
4B-\	.	2d\	.
4G\	.	.	.
=9	=9	=9	=9
2A\	0r	2c\	1r
2G\	.	2d\	.
1r	.	2.G/	2.b-\
.	.	4A/	4a/
=10	=10	=10	=10
2r	2r	4B-\	2g/
.	.	4c\	.
2D\	2.B-\	1d	2f/
1E-i	.	.	4g/
.	4A/	.	4a/
.	2G/	2G/	4b-\
.	.	.	4g/
=11	=11	=11	=11
2D\	2F/	2d\	2a/
2E-i\	4G/	2c\	1g
.	4A/	.	.
1D	4B-\	[1d	.
.	4G/	.	.
.	2A/	.	2f#i/
=12	=12	=12	=12
1GG	0G	2d\]	0g
.	.	2.B-\	.
2.G\	.	.	.
.	.	4c\	.
.	.	4d\	.
4G\	.	4e\	.
=13	=13	=13	=13
2F\	0r	2f\	0r
2B-\	.	2d\	.
2B-\	.	1c	.
2A\	.	.	.
=14	=14	=14	=14
1B-	2.G/	1B-	0r
.	4G/	.	.
1BB-	2F/	1r	.
.	2B-\	.	.
=15	=15	=15	=15
1C	2B-\	1r	0r
.	2A/	.	.
4BB-/	1B-	2.d\	.
4C/	.	.	.
4D\	.	.	.
4E\	.	4d\	.
=16	=16	=16	=16
2F\	2r	2c\	1r
1D	2A/	2f\	.
.	2B-\	2f\	2.g/
2C/	2c\	2e\	.
.	.	.	4g/
=17	=17	=17	=17
2D\	2A/	0f	2f/
2BB-/	2B-\	.	2b-\
1F	1c	.	2b-\
.	.	.	2a/
=18	=18	=18	=18
1BB-	0B-	1r	0b-
1r	.	2.f\	.
.	.	4e\	.
=19	=19	=19	=19
2.B-\	0r	2d\	0r
.	.	2c\	.
4A\	.	.	.
2G\	.	4d\	.
.	.	4e\	.
2F\	.	4f\	.
.	.	4d\	.
=20	=20	=20	=20
4G\	0r	2e\	0r
4A\	.	.	.
4B-\	.	2d\	.
4G\	.	.	.
2A\	.	2c\	.
2G\	.	2d\	.
=21	=21	=21	=21
0r	0r	1G	2.b-\
.	.	.	4a/
.	.	2r	2g/
.	.	[2B-\	2f/
=22	=22	=22	=22
1B-	0r	4B-\]	4g/
.	.	4A/	4a/
.	.	2G/	4b-\
.	.	.	4g/
2A\	.	2F/	2a/
2B-\	.	[2B-\	[2d/
=23	=23	=23	=23
1BB-	2.B-\	4B-\]	4d/]
.	.	4c\	4e/
.	.	2d\	4f/
.	4A/	.	4g/
2C/	2G/	2G/	4e/
.	.	.	4d/
2D\	2F/	[2d\	[2a/
=24	=24	=24	=24
1E-i	4G/	2d\]	2a/]
.	4A/	.	.
.	4B-\	2c\	1g
.	4G/	.	.
1D	1A	1d	.
.	.	.	2f#i/
=25	=25	=25	=25
1GG	0G	2e-i\	0g
.	.	1d	.
2G\	.	.	.
2G\	.	4c\	.
.	.	4B-\	.
=26	=26	=26	=26
2F\	1r	1A	0r
2F\	.	.	.
2G\	2G/	1r	.
2G\	2G/	.	.
=27	=27	=27	=27
1D	2F/	0r	1r
.	2F/	.	.
1r	2G/	.	2g/
.	2G/	.	2g/
=28	=28	=28	=28
0r	1D	2d\	2f/
.	.	2d\	2f/
.	1r	2c\	2g/
.	.	2c\	2g/
=29	=29	=29	=29
2G\	0r	2d\	[0d
2G\	.	2d\	.
2F\	.	1A	.
2F\	.	.	.
=30	=30	=30	=30
2G\	2G/	0r	1d]
2G\	2G/	.	.
1D	2F/	.	1r
.	2F/	.	.
=31	=31	=31	=31
0r	2G/	1r	2g/
.	2G/	.	2g/
.	1D	2d\	2f/
.	.	2d\	2f/
=32	=32	=32	=32
1r	0r	2c\	2g/
.	.	2c\	2g/
2G\	.	2d\	[1d
2G\	.	2d\	.
=33	=33	=33	=33
2F\	0r	2A/	0d]
2F\	.	2A/	.
2G\	.	2.B-\	.
2G\	.	.	.
.	.	4A/	.
=34	=34	=34	=34
1D	1r	1F	1r
2.BB-/	2.d\	2.f\	2.b-\
4BB-/	4d\	4f\	4b-\
=35	=35	=35	=35
2BB-/	2d\	2f\	2b-\
2BB-/	2d\	2f\	2b-\
2F\	2c\	2f\	2a/
2G\	2B-\	2e\	2g/
=36	=36	=36	=36
1F	1c	1f	1a
2.F\	2.A/	4c\	4cc\
.	.	4c\	4b-\
.	.	4c\	4a/
4F\	4A/	4c\	4g/
=37	=37	=37	=37
2F\	2A/	2c\	4cc\
.	.	.	4b-\
2F\	2A/	2c\	4a/
.	.	.	4g/
4F\	4c\	4A/	4f/
4F\	4B-\	4A/	4g/
4F\	4A/	4A/	4a/
4G\	4G/	4d\	4b-\
=38	=38	=38	=38
2D\	2F/	2d\	2a/
2GG/	2G/	2d\	2g/
2.G\	2.d\	2.g\	2.b-\
4G\	4d\	4g\	4b-\
=39	=39	=39	=39
2G\	2d\	2g\	2b-\
2B-\	2d\	2f\	2b-\
2F\	2c\	2f\	2a/
2G\	2B-\	2e\	2g/
=40	=40	=40	=40
1F	1c	1f	1a
4C/	2.c\	4e\	4cc\
4C/	.	4e\	4b-\
4C/	.	4e\	4a/
4C/	4B-\	4e\	4g/
=41	=41	=41	=41
2D\	2A/	2d\	2f/
2E-i\	2G/	2c\	2g/
2D\	2A/	2d\	2g/
2D\	2A/	2d\	2f#i/
=42	=42	=42	=42
2GG/	2G/	2d\	2g/
2F\	2c\	2A/	2a/
4C/	4e-i\	4G/	4cc\
4C/	4d\	4G/	4b-\
4C/	4c\	4G/	4a/
4C/	4B-\	4G/	4g/
=43	=43	=43	=43
2D\	2A/	2d\	2f/
2E-i\	2G/	2c\	2g/
2D\	2A/	2d\	2g/
2D\	2A/	2d\	2f#i/
=44	=44	=44	=44
0GGl	0Gl	0dl	0gl
==	==	==	==
*-	*-	*-	*-
!!!RDF**kern: l=long note in original notation
!!!RDF**kern: i=editorial accidental
!!!ENC:	Jesse Rodin; Victoria Chang 2011/10/21
!!!END:	2011/10/21/
!!!EED:	Jesse Rodin
!!!EEV:	2011/12/16/
!!attribution-level@Jos: 3 (tricky)
!!!ONB:	Translated from MusicXML and edited on 2011/12/16/ by Craig Sapp
!!muse2ps: C^@{COA}?\n@{SCT}^i2I150v90,90,90,150Q16
